X: 41859
T: Virginia, The
R: reel
M: 4/4
K: Dmajor
|:D(B{c}BA) B3A|BAdB AFEF|DF F/F/F A3B|AFBF AFEF|
D(B{c}BA) B3A|BAdB ABde|Jf3e defe|dBAF B(E {F}E/D/E):|
|:defe d3A|BAFA dAFA|df{g}fe defg|afbf afeg|
fd{e}dc dedB|AF F/F/F ABde|Jf3e defe|dBAF B(E {F}E/D/E):|

